!!!COM: Ulenberg, Caspar
!!!CDT: 1548/12/24-1617/02/16
!!!OPR: Die Psalmen Davids
!!!ONM: 45
!!!ONM-carmgen: 38
!!!OTL@@LA: Deus noster refugium
!!!OTL-incipit@@DE: Got ist auff den wir immer hoffen
**kern	**text
*Ivox	*
*clefC3	*
*k[b-]	*
*M2/1	*
*met(C|)	*
*MM180	*
=-	=-
*xywh-#239:91,777,690,372	*
1c	Got
2c	ist/
2c	auff
=-	=-
2A	den
2G	wir
2F	im-
2A	-mer
=-	=-
1G	hof-
1F	-fen/
=-	=-
*xywh-#239:94,1147,688,261	*
1r	.
1F	Ist
=-	=-
2c	un-
2c	-ser
2d	trost
2c	und
=-	=-
1d	stre-
1e	-cke
=-	=-
1f	gůt/
1r	.
=-	=-
*xywh-#240:238,162,714,303	*
1f	Der
1e	uns
=-	=-
1d	mit
2c	macht
2d	aus-
=-	=-
2c	-helf-
2B-	-fen
1A	thůt/
=-	=-
*xywh-#240:248,460,705,215	*
1r	.
1c	Wenn
=-	=-
1d	gros-
1e	-se
=-	=-
1f	not
2c	uns
1B-	hat
=-	=-
.	.
2A	be-
1G	-trof-
=-	=-
1F	-fen/
1r	.
=-	=-
*xywh-#240:253,670,701,219	*
1A	Drum
2B-	fürcht
2A	wir
=-	=-
2F	und
2c	für
2c	kei-
2B-	-nem
=-	=-
1c	ding/
1r	.
=-	=-
*xywh-#240:256,891,697,216	*
1c	Wenn
2d	auch
2d	die
=-	=-
2e	welt
2f	schon
2f	un-
2e	-ter-
=-	=-
1f	-gieng/
1r	.
=-	=-
*xywh-#240:259,1107,696,224	*
1f	Und
1d	fie-
=-	=-
2c	-len
1B-	berg
2A	ins
=-	=-
2G	meer
2F	mit
1G	hauf-
=-	=-
0Fll;	-fen.
==	==
*-	*-
!!!RDF**kern: l = terminal long
!!!RDF**kern: i = editorial accidental
!!!AGN: Psalm
!!!YOR: https://mdz-nbn-resolving.de/details:bsb11116252
!!!YOO: München, Bayerische Staatsbibliothek
!!!URL-scan: https://www.digitale-sammlungen.de/de/view/bsb11116252?page=239
!!!IIIF: https://api.digitale-sammlungen.de/iiif/presentation/v2/bsb11116252/manifest
!!!EED: Wolfgang Drescher
!!!END: 2023/04/05
!!!ENC: Wolfgang Drescher
!!!EEV: 2023/04/05
!!!title: @{ONM}. @{OTL} / <i>@{OTL-incipit@@DE}</i>